X:1
T:Bryn-y-Coed
C:R. G. Owen 1869 - 1930
L:1/4
Q:1/2=120
M:3/2
I:linebreak $
K:D
V:1 treble 
V:1
 A2 | A2 F2 B2 | A4 F2 | F4 E2 | D4 D2 | G2 F2 G2 | =c4 B2 | A6 | G4 A2 | d2 ^c2 B2 | A4 F2 | %11
 B2 A2 ^G2 |$ A4 F2 | F2 E2 D2 | =G4 F2 | E6 | D4 || %17
